icons/mobile/24/svg/extension-cog-24.svg

<svg width="24" height="24" viewBox="0 0 24 24" fill="none" xmlns="http://www.w3.org/2000/svg">
<path fill-rule="evenodd" clip-rule="evenodd" d="M17.0684 13.2178C17.6532 12.927 18.3478 12.927 18.9316 13.2178C19.2106 13.3578 19.4143 13.6111 19.4893 13.9131L19.71 14.7979C19.9209 14.8978 20.1289 15.0209 20.3389 15.1719L21.2275 14.918C21.5275 14.832 21.8484 14.8807 22.1084 15.0527C22.6513 15.4117 23.0001 16.0151 23.0391 16.666C23.0581 16.977 22.9398 17.2791 22.7148 17.4961L22.0518 18.1367C22.0678 18.2557 22.0801 18.376 22.0801 18.5C22.0801 18.624 22.0678 18.7443 22.0518 18.8633L22.7148 19.5049C22.9388 19.7209 23.0571 20.023 23.0381 20.334C22.9991 20.9849 22.6503 21.5883 22.1064 21.9473C21.8464 22.1203 21.5256 22.168 21.2266 22.082L20.3369 21.8281C20.127 21.9781 19.919 22.1022 19.708 22.2021L19.4873 23.0869C19.4123 23.3889 19.2087 23.6422 18.9307 23.7822C18.6378 23.9281 18.3199 24 18 24C17.6801 24 17.3603 23.9271 17.0684 23.7822C16.7894 23.6422 16.5857 23.3889 16.5107 23.0869L16.29 22.2021C16.0791 22.1022 15.8711 21.9791 15.6611 21.8281L14.7725 22.082C14.4745 22.169 14.1526 22.1182 13.8916 21.9482C13.3477 21.5882 12.999 20.9849 12.96 20.334C12.941 20.023 13.0592 19.7209 13.2842 19.5039L13.9473 18.8633C13.9313 18.7443 13.9189 18.624 13.9189 18.5C13.9189 18.376 13.9313 18.2557 13.9473 18.1367L13.2842 17.4951C13.0602 17.2791 12.9419 16.977 12.9609 16.666C12.9999 16.0151 13.3487 15.4117 13.8926 15.0527C14.1516 14.8797 14.4735 14.831 14.7725 14.918L15.6621 15.1719C15.8721 15.0219 16.0801 14.8978 16.291 14.7979L16.5117 13.9131C16.5867 13.6111 16.7904 13.3578 17.0684 13.2178ZM18.001 16.7246C17.0208 16.7246 16.2258 17.5199 16.2256 18.5C16.2258 19.4801 17.0208 20.2744 18.001 20.2744C18.9807 20.2739 19.7752 19.4798 19.7754 18.5C19.7752 17.5202 18.9808 16.7251 18.001 16.7246Z" fill="black"/>
<path d="M11 2.00098C12.815 2.00098 14.2939 3.47416 14.2939 5.28516V6.19531C14.9799 6.24231 15.5955 6.29733 16.1875 6.36133C17.7902 6.53855 18.999 7.8891 18.999 9.50488V11.6611C18.673 11.5661 18.339 11.501 17.999 11.501C17.747 11.501 17.496 11.5349 17.249 11.5879V9.50488C17.249 8.78394 16.7101 8.17958 15.9951 8.10156C15.2081 8.01457 14.3731 7.9486 13.3691 7.8916C12.9061 7.8656 12.543 7.48155 12.543 7.01855V5.28711C12.543 4.44011 11.852 3.75195 11.001 3.75195C10.15 3.75198 9.45801 4.44013 9.45801 5.28711V6.97656C9.45801 7.44056 9.09581 7.82459 8.63281 7.85059C7.76088 7.89859 6.87397 7.97995 5.99805 8.08594C5.28505 8.17394 4.748 8.77628 4.75 9.48828V10.3721H5.7041C7.42307 10.3721 8.82129 11.7684 8.82129 13.4834C8.82106 15.1982 7.42293 16.5937 5.7041 16.5938H4.74902V17.543C4.74802 18.2548 5.27677 18.8562 5.97656 18.9434C7.86656 19.1744 9.78238 19.2586 11.6924 19.2266C11.5264 19.5985 11.4379 20.0059 11.4629 20.4238L11.4619 20.4248C11.4729 20.6148 11.5215 20.7994 11.5625 20.9834C11.3755 20.9854 11.187 21 11 21C9.25701 21 7.49466 20.8927 5.76367 20.6797C4.18588 20.4855 2.99904 19.1369 2.99902 17.541L3.00098 15.7178C3.00209 15.2359 3.39407 14.8438 3.87598 14.8438H5.7041C6.45793 14.8437 7.07106 14.2342 7.07129 13.4834C7.07129 12.7324 6.45807 12.1221 5.7041 12.1221H3.87598C3.39402 12.122 3.00102 11.73 3.00098 11.248L2.99902 9.49023C2.99802 7.89424 4.19516 6.54363 5.78516 6.34863C6.42409 6.27064 7.06708 6.2072 7.70801 6.1582V5.28613C7.70801 3.47514 9.18501 2.00099 11 2.00098Z" fill="black"/>
</svg>

<!-- This Source Code Form is subject to the terms of the Mozilla Public
   - License, v. 2.0. If a copy of the MPL was not distributed with this
   - file, You can obtain one at http://mozilla.org/MPL/2.0/. -->
<svg xmlns="http://www.w3.org/2000/svg" width="24" height="24" fill="none" viewBox="0 0 24 24">
    <path fill="#000" fill-rule="evenodd" d="M17.068 13.218a2.1 2.1 0 0 1 1.864 0c.279.14.482.393.557.695l.221.885q.315.149.629.374l.889-.254c.3-.086.62-.037.88.135.543.359.892.962.931 1.613.02.311-.1.613-.324.83l-.663.64c.016.12.028.24.028.364s-.012.244-.028.363l.663.642c.224.216.342.518.323.829a2.1 2.1 0 0 1-.932 1.613c-.26.173-.58.221-.88.135l-.89-.254q-.312.224-.628.374l-.22.885a1.07 1.07 0 0 1-.557.695 2.1 2.1 0 0 1-1.862 0 1.07 1.07 0 0 1-.558-.695l-.221-.885q-.315-.149-.629-.374l-.888.254c-.298.087-.62.036-.881-.134a2.1 2.1 0 0 1-.932-1.614c-.019-.311.1-.613.324-.83l.663-.64a3 3 0 0 1-.028-.364c0-.124.012-.244.028-.363l-.663-.642a1.06 1.06 0 0 1-.323-.829c.039-.65.388-1.254.932-1.613.259-.173.58-.222.88-.135l.89.254q.313-.225.628-.374l.22-.885c.076-.302.28-.555.557-.695m.933 3.507a1.776 1.776 0 0 0 0 3.55 1.775 1.775 0 0 0 0-3.55" clip-rule="evenodd" />
    <path fill="#000" d="M11 2.001a3.294 3.294 0 0 1 3.294 3.284v.91a48 48 0 0 1 1.893.166A3.157 3.157 0 0 1 19 9.505v2.156a3.6 3.6 0 0 0-1-.16 3.6 3.6 0 0 0-.75.087V9.505c0-.721-.539-1.325-1.254-1.403a49 49 0 0 0-2.626-.21.876.876 0 0 1-.826-.873V5.287a1.54 1.54 0 0 0-1.542-1.535 1.54 1.54 0 0 0-1.543 1.535v1.69a.875.875 0 0 1-.825.874c-.872.048-1.759.129-2.635.235-.713.088-1.25.69-1.248 1.402v.884h.954a3.12 3.12 0 0 1 3.117 3.111 3.12 3.12 0 0 1-3.117 3.11H4.75v.95a1.41 1.41 0 0 0 1.228 1.4c1.89.231 3.805.316 5.715.284a2.56 2.56 0 0 0-.23 1.197c.01.19.06.375.1.56-.186.001-.375.016-.562.016-1.743 0-3.505-.107-5.236-.32A3.16 3.16 0 0 1 3 17.541l.002-1.823a.877.877 0 0 1 .875-.874h1.828c.754 0 1.367-.61 1.367-1.36 0-.752-.613-1.362-1.367-1.362H3.876a.876.876 0 0 1-.875-.874L2.999 9.49a3.17 3.17 0 0 1 2.786-3.14 43 43 0 0 1 1.923-.19v-.873A3.293 3.293 0 0 1 11 2.001" />
</svg>
